X:36
T:Come little flock - Hard
%%VWML:SBG-1-2-303-0
F:http://www.vwml.org/record/SBG/1/2/303
Z:Original Sibelius transcriptions by M. & S. Graebe
M:4/4
I:linebreak $
K:C
V:1 treble nm="P1"
V:1
 B2 AB G3 A | B d e e dc B2 | A2 A A B2 ed | ^c A B c d4 |$ B2 A B G3 A | B c e e dc B2 | %6
 A2 A A Bd c A | G2 BA G4 | %8

